assets/svg/wallet_icon_wallet_loadingerror.svg

<svg width="49" height="48" viewBox="0 0 49 48" fill="none" xmlns="http://www.w3.org/2000/svg">
<path d="M22.5622 4.83188H15.6725C15.1081 4.83188 14.6066 4.47094 14.4275 3.93469L13.6156 1.5H24.62L23.8081 3.93469C23.7207 4.19597 23.5534 4.42317 23.3298 4.58417C23.1062 4.74517 22.8377 4.83182 22.5622 4.83188ZM28.7159 38.8612V42.3122C28.7159 43.7184 27.5759 44.8584 26.1697 44.8584H14.9141C14.0084 44.8584 13.2734 45.5934 13.2734 46.4991H26.1697C28.4825 46.4991 30.3566 44.6241 30.3566 42.3122V39.5128L28.7159 38.8612Z" fill="#E1EAF8"/>
<path d="M26.1685 46.828H12.0638C9.57383 46.828 7.54883 44.802 7.54883 42.313V37.0742C7.54883 36.8933 7.69602 36.7461 7.87695 36.7461C8.05789 36.7461 8.20508 36.8933 8.20508 37.0742V42.313C8.20508 44.4411 9.93664 46.1717 12.0638 46.1717H26.1685C28.2966 46.1717 30.0273 44.4402 30.0273 42.313V39.5136C30.0273 39.3327 30.1745 39.1855 30.3554 39.1855C30.5363 39.1855 30.6835 39.3327 30.6835 39.5136V42.313C30.6835 44.802 28.6585 46.828 26.1685 46.828Z" fill="#9A9A9A"/>
<path d="M30.0273 5.68687V8.81437C30.0273 8.99531 30.1745 9.1425 30.3554 9.1425C30.5363 9.1425 30.6835 8.99531 30.6835 8.81437V5.68687C30.6835 3.19688 28.6576 1.17188 26.1685 1.17188H12.0638C9.57383 1.17188 7.54883 3.19781 7.54883 5.68687V34.5225C7.54883 34.7034 7.69602 34.8506 7.87695 34.8506C8.05789 34.8506 8.20508 34.7034 8.20508 34.5225V5.68687C8.20508 3.55875 9.93664 1.82812 12.0638 1.82812H26.1685C28.2966 1.82812 30.0273 3.55969 30.0273 5.68687Z" fill="#9A9A9A"/>
<path d="M16.288 22.8391C16.2392 22.8391 16.1895 22.8278 16.1427 22.8053L13.9545 21.7207C13.8782 21.6811 13.8204 21.6131 13.7936 21.5313C13.7669 21.4496 13.7733 21.3606 13.8115 21.2835C13.8497 21.2064 13.9167 21.1475 13.998 21.1193C14.0793 21.0911 14.1684 21.096 14.2461 21.1328L16.4333 22.2166C16.5112 22.2553 16.5706 22.3233 16.5984 22.4058C16.6262 22.4882 16.6201 22.5783 16.5814 22.6563C16.5544 22.7111 16.5127 22.7573 16.4608 22.7896C16.4089 22.8219 16.3491 22.839 16.288 22.8391ZM14.232 31.3441C14.1111 31.3441 13.9939 31.2766 13.9367 31.1603C13.8985 31.0823 13.8928 30.9922 13.921 30.9099C13.9491 30.8277 14.0087 30.7599 14.0867 30.7216L16.2795 29.6472C16.3576 29.609 16.4477 29.6033 16.53 29.6314C16.6122 29.6596 16.68 29.7192 16.7183 29.7972C16.7565 29.8753 16.7622 29.9654 16.7341 30.0476C16.7059 30.1299 16.6463 30.1976 16.5683 30.236L14.3764 31.3103C14.3295 31.3338 14.2799 31.3441 14.232 31.3441ZM43.6852 14.3019C43.5717 14.3019 43.4611 14.2428 43.4002 14.1369C43.3787 14.0995 43.3647 14.0583 43.3592 14.0156C43.3536 13.9728 43.3565 13.9294 43.3678 13.8878C43.379 13.8462 43.3983 13.8072 43.4246 13.773C43.4509 13.7389 43.4837 13.7102 43.5211 13.6888L45.637 12.4719C45.7125 12.4293 45.8016 12.4183 45.8852 12.4412C45.9687 12.4641 46.0398 12.519 46.0829 12.5941C46.1261 12.6692 46.1379 12.7583 46.1156 12.842C46.0934 12.9257 46.039 12.9972 45.9642 13.041L43.8483 14.2578C43.7977 14.2878 43.7405 14.3019 43.6852 14.3019ZM37.4311 10.2866C37.3843 10.2867 37.3381 10.2768 37.2955 10.2575C37.2529 10.2383 37.2149 10.2101 37.184 10.1749C37.1532 10.1398 37.1303 10.0984 37.1168 10.0536C37.1033 10.0088 37.0995 9.96169 37.1058 9.91534L37.4302 7.49566C37.4545 7.31566 37.6195 7.18909 37.7986 7.21441C37.9786 7.23878 38.1042 7.40378 38.0799 7.58284L37.7555 10.0025C37.7449 10.0811 37.7062 10.1531 37.6465 10.2053C37.5869 10.2576 37.5104 10.2864 37.4311 10.2866Z" fill="#FD4E4E"/>
<path d="M11.5191 8.06751H22.6482C22.8634 8.06751 23.0384 7.89248 23.0384 7.67731C23.0384 7.46214 22.8634 7.28711 22.6482 7.28711H11.5191C11.3039 7.28711 11.1289 7.46214 11.1289 7.67731C11.1289 7.89248 11.3039 8.06751 11.5191 8.06751ZM11.5191 12.0699H19.6212C19.8364 12.0699 20.0114 11.8948 20.0114 11.6797C20.0114 11.4645 19.8364 11.2895 19.6212 11.2895H11.5191C11.3039 11.2895 11.1289 11.4645 11.1289 11.6797C11.1289 11.8948 11.3039 12.0699 11.5191 12.0699ZM11.5191 16.0734H17.2866C17.5018 16.0734 17.6768 15.8983 17.6768 15.6832C17.6768 15.468 17.5018 15.293 17.2866 15.293H11.5191C11.3039 15.293 11.1289 15.468 11.1289 15.6832C11.1289 15.8983 11.3039 16.0734 11.5191 16.0734Z" fill="#9A9A9A"/>
<path fill-rule="evenodd" clip-rule="evenodd" d="M31.6717 17.6228C31.046 16.532 29.4725 16.532 28.8469 17.6228L23.7202 26.5617C23.0976 27.6471 23.8813 28.9999 25.1326 28.9999H35.3859C36.6373 28.9999 37.4209 27.6471 36.7983 26.5617L31.6717 17.6228ZM31.098 24.6937C31.095 24.7684 31.0619 24.8391 31.0055 24.8909C30.9491 24.9427 30.8739 24.9716 30.7956 24.9715H29.7225C29.5598 24.9715 29.4265 24.8485 29.4201 24.6937L29.2414 20.3452C29.2398 20.3063 29.2464 20.2675 29.2608 20.2311C29.2753 20.1948 29.2973 20.1615 29.3256 20.1335C29.3538 20.1054 29.3877 20.0831 29.4252 20.0678C29.4627 20.0526 29.503 20.0447 29.5438 20.0448H30.9737C31.1454 20.0448 31.2832 20.1812 31.2761 20.3452L31.098 24.6937ZM31.016 26.6868C31.013 26.7615 30.9799 26.8322 30.9235 26.884C30.8671 26.9358 30.7919 26.9647 30.7136 26.9646H29.8039C29.6412 26.9646 29.5079 26.8416 29.5015 26.6868L29.4688 25.8907C29.4672 25.8518 29.4738 25.813 29.4883 25.7766C29.5027 25.7402 29.5248 25.707 29.553 25.6789C29.5812 25.6508 29.6151 25.6285 29.6526 25.6133C29.6901 25.598 29.7305 25.5902 29.7712 25.5902H30.7457C30.9174 25.5902 31.0551 25.7267 31.0481 25.8907L31.016 26.6868Z" fill="#FD4E4E"/>
<circle cx="30.5" cy="24" r="11.65" stroke="#9A9A9A" stroke-width="0.7"/>
</svg>

<svg xmlns="http://www.w3.org/2000/svg" width="49" height="48" fill="none"><path fill="#E1EAF8" d="M22.562 4.832h-6.89c-.564 0-1.065-.361-1.245-.897L13.617 1.5H24.62l-.812 2.435a1.31 1.31 0 0 1-1.246.897m6.154 34.03v3.45a2.546 2.546 0 0 1-2.546 2.546H14.914c-.906 0-1.64.735-1.64 1.641H26.17a4.187 4.187 0 0 0 4.187-4.187v-2.8z"/><path fill="#9A9A9A" d="M26.169 46.828H12.064a4.52 4.52 0 0 1-4.515-4.515v-5.239a.328.328 0 0 1 .656 0v5.239a3.863 3.863 0 0 0 3.859 3.859h14.105a3.863 3.863 0 0 0 3.858-3.859v-2.8a.328.328 0 0 1 .656 0v2.8a4.52 4.52 0 0 1-4.514 4.515M30.027 5.687v3.127a.328.328 0 0 0 .656 0V5.687a4.52 4.52 0 0 0-4.514-4.515H12.064a4.52 4.52 0 0 0-4.515 4.515v28.836a.328.328 0 0 0 .656 0V5.687a3.863 3.863 0 0 1 3.859-3.859h14.105a3.863 3.863 0 0 1 3.858 3.859"/><path fill="#FD4E4E" d="M16.288 22.84a.34.34 0 0 1-.145-.035l-2.189-1.084a.329.329 0 0 1 .292-.588l2.187 1.084a.328.328 0 0 1-.145.622m-2.056 8.504a.33.33 0 0 1-.311-.434.33.33 0 0 1 .166-.188l2.192-1.075a.329.329 0 0 1 .29.589l-2.193 1.074a.3.3 0 0 1-.144.034m29.453-17.042a.328.328 0 0 1-.164-.613l2.116-1.217a.328.328 0 0 1 .327.569l-2.116 1.217a.3.3 0 0 1-.163.044m-6.254-4.015a.327.327 0 0 1-.325-.372l.324-2.42a.328.328 0 1 1 .65.087l-.325 2.42a.33.33 0 0 1-.324.285"/><path fill="#9A9A9A" d="M11.52 8.068h11.128a.39.39 0 0 0 0-.78H11.52a.39.39 0 0 0 0 .78m0 4.002h8.101a.39.39 0 0 0 0-.78H11.52a.39.39 0 0 0 0 .78m0 4.003h5.767a.39.39 0 0 0 0-.78h-5.768a.39.39 0 0 0 0 .78"/><path fill="#FD4E4E" fill-rule="evenodd" d="M31.672 17.623a1.628 1.628 0 0 0-2.825 0l-5.127 8.939A1.628 1.628 0 0 0 25.133 29h10.253a1.628 1.628 0 0 0 1.412-2.438zm-.574 7.07a.28.28 0 0 1-.092.198.3.3 0 0 1-.21.08h-1.073a.297.297 0 0 1-.303-.277l-.179-4.349a.28.28 0 0 1 .085-.211.3.3 0 0 1 .218-.09h1.43c.171 0 .31.137.302.301zm-.082 1.994a.28.28 0 0 1-.092.197.3.3 0 0 1-.21.08h-.91a.297.297 0 0 1-.302-.277l-.033-.796a.28.28 0 0 1 .084-.212.3.3 0 0 1 .218-.089h.975c.171 0 .31.137.302.3z" clip-rule="evenodd"/><circle cx="30.5" cy="24" r="11.65" stroke="#9A9A9A" stroke-width=".7"/></svg>
